Default.style/info_board.svg

<svg xmlns="http://www.w3.org/2000/svg" width="28" height="28"><path fill="gray" fill-rule="evenodd" d="M0 0v28h2v-6h24v6h2V0H0Zm2 2h24v18H2V2Zm6 4v2h12V6H8Zm-4 4v2h20v-2H4Zm0 4v2h20v-2H4Z"/></svg>

<svg xmlns="http://www.w3.org/2000/svg" width="28" height="28" viewBox="0 0 28 28">
  <path fill="gray" fill-rule="evenodd" d="M0,0 C0,9.3333334 0,18.6666666 0,28 L2,28 L2,22 L26,22 L26,28 L28,28 C28,18.6666666 28,9.3333334 28,0 C18.6666666,0 9.3333334,0 0,0 Z M2,2 L26,2 L26,20 L2,20 L2,2 Z M8,6 L8,8 L20,8 L20,6 L8,6 Z M4,10 L4,12 L24,12 L24,10 L4,10 Z M4,14 L4,16 L24,16 L24,14 L4,14 Z"/>
</svg>
